src/assets/svg/css.svg

<svg width="84" height="83" viewBox="0 0 84 83" fill="none" xmlns="http://www.w3.org/2000/svg">
<g clip-path="url(#clip0)">
<path d="M13.8037 43.5755L43.2812 8.97144L74.0404 39.7306L39.4364 69.2081L22.7752 60.2367L13.8037 43.5755Z" fill="#1172B8"/>
<path d="M68.9145 39.7306L56.0981 26.9143L24.6982 58.3143L38.1553 65.3632L68.9145 39.7306Z" fill="#33AADD"/>
<path d="M44.5633 47.4205L31.747 34.6042L35.5918 29.4776L49.049 36.5266L38.7959 26.2736L42 21.7878L61.8653 41.6531L56.7388 45.498L45.2041 40.3715L52.8939 48.0613L39.4367 58.9551L29.1837 53.8286L24.0572 43.5756L29.8245 36.5266L33.6694 40.3715L31.1061 44.2164L33.6694 49.3429L38.7959 51.9062L44.5633 47.4205Z" fill="white"/>
</g>
<defs>
<clipPath id="clip0">
<rect width="58" height="58" fill="white" transform="translate(42) rotate(45)"/>
</clipPath>
</defs>
</svg>

<svg width="84" height="83" fill="none" xmlns="http://www.w3.org/2000/svg"><g clip-path="url(#a)"><path d="M13.804 43.575 43.28 8.971l30.76 30.76-34.605 29.477-16.66-8.971-8.972-16.662z" fill="#1172B8"/><path d="M68.915 39.73 56.098 26.915l-31.4 31.4 13.457 7.05 30.76-25.633z" fill="#3AD"/><path d="M44.563 47.42 31.747 34.604l3.845-5.126 13.457 7.049-10.253-10.253L42 21.788l19.865 19.865-5.126 3.845-11.535-5.127 7.69 7.69-13.457 10.894-10.253-5.126-5.127-10.253 5.768-7.05 3.844 3.845-2.563 3.845 2.563 5.127 5.127 2.563 5.767-4.486z" fill="#fff"/></g><defs><clipPath id="a"><path fill="#fff" transform="rotate(45 21 50.698)" d="M0 0h58v58H0z"/></clipPath></defs></svg>
